X: 76
T:Thornbury Rise
% Nottingham Music Database
S:Philip Rowe
M:2/4
L:1/4
K:G
D/2|"G"G/4A/2B/4 A/2G/2|G/4A/2B/4 A/2G/2|"G"G/4A/2B/4 A/2G/2|"C"c/2c/2 c|
c/4d/4e/4d/4 c/2c/2|"G"B/4c/4d/4c/4 B/2B/2|"D7"A/4B/4c/4B/4 A/2F/2|\
"G"G/2B/2 G/2::
F/4G/4|"D"A/4F/4D/4F/4 A/4c/4B/4A/4|"G"G/4A/4B/4c/4 d/2g/2|\
"D"A/4F/4D/4F/4 A/4c/4B/4A/4|"G"G/4F/4G/4A/4 G/2c/4d/4|
"C"e/2e/2 e/4d/4c/4e/4|"G"d/2d/2 d/4c/4B/4d/4|"D7"A/4G/4A/4B/4 d/4c/4B/4A/4|\
[1"G"G/4F/4G/4A/4 G/2:|[2 "G"G/4F/4G/4A/4 G
|:"G"g/4d/4B/4d/4 g/4d/4B/4d/4|"C"g/4e/4c/4e/4 g/4e/4c/4e/4|\
"G"g/4d/4B/4d/4 g/4d/4B/4d/4|"Am"c/4B/4A/4G/4 "D7"A|
"G"g/4d/4B/4d/4 g/4d/4B/4d/4|"C"g/4e/4c/4e/4 g/4e/4c/4e/4|\
"G"g/4d/4B/4g/4 "D7"f/4d/4e/4f/4| [1"D7"g/4f/4g/4a/4 "G"g:|[2"G"g2||


